X:1
T:When Messiah Comes
T:When Messiah Comes - Tenor
L:1/8
M:4/4
K:F
V:1 bass nm="Piano" snm="Pno."
V:1
 z[Q:1/4=94] A,/A,/ A,G,/F,/ G,F,/D,/ D,D,/C,/ | C,D, (D,/C,/A,,) z4 | z B,/B,/ B,A,/A,/ A,G,G,F, | %3
w: Theres a cry go- ing up from the heart of je-|ru- sal- lem * *|"Where's the King that the pro- phets said would|
 F,G, G,/F,/D, z4 | z B,/B,/ B,A,/A,/ A,G,/G,/ G,F, | F,G, G,2 z4 | z B,B,A, A,G, G,2 | %7
w: rule our land * *|break the yoke of our bur- den and give us|peace a- gain|Each day we look for him|
 z B,B,B, B,A, A,2- | A,6 z2 | z A,/A,/ A,G,/F,/ G,A,/G,/ A,A,/G,/ | G,A, A,4 z2 | %11
w: oh how we long for him||Moth- ers pray with their child- ren at night that it|will be soon|
 z B,/B,/ B,A,/A,/ A,B, B,A,/A,/ | A,B,/B,/ B,4 z2 | z B,B,A, A,G,/G,/ G,A,/A,/ | A,B,/B,/ B,4 z2 | %15
w: Shep- herds pray as they watch their flocks by the|light of the moon|Old men have vis- ions and dreams of a|King of the Jews|
 z B,B,A, A,G, G,2 | z8 | z8 | z8 | z4 z ^C2 C | A,A, A,2 z D2 D | B,B, B,2 z2 A,B, | %22
w: When will He come to rule||||When Mes-|si- ah comes, when Mes-|si- ah comes He'll bring|
 A,B,A,B, A,G,F,G, | A,4 z ^C2 C | A,A, A,2 z D2 D | B,B, B,2 z2 A,B, | A,B,A,B, A,G,F,G, | %27
w: peace to ev- 'ry na- tion- when- he|comes He's the|prom- ised one He is|God's own Son we'll have|cause for cel- e- bra- tion when he|
 A,4 z4 | z8 |[K:G] z8 | z B,/B,/ B,A,/G,/ A,B,/B,/ B,A, | A,B, B,4 z2 | z C/C/ CB,/B,/ B,CCB, | %33
w: comes|||For so long we have bowed un- der Ro- man|ty- ran- ny|where's the One who will change the course of|
 B,C C4 z2 | z C/C/ CB,/B,/ B,A,/A,/ A,B, | B,C C4 z2 | z CCB, B,A, A,2 | z8 | z4 z ^D2 D | %39
w: his- to- ry|who will rise up and con- quer our dread- ed|en- e- my|He'll change our des- ti- ny||When Mes-|
 B,B, B,2 z E2 E | CC C2 z2 B,C | B,CB,C B,A,G,A, | B,4 z ^D2 B, | B,B, B,2 z E2 E | CC C2 z2 B,C | %45
w: si- ah comes when Mes-|si- ah comes He'll bring|peace to ev- 'ry na- tion when he|comes He's the|prom- ised One He is|God's own Son We'll have|
 B,CB,C B,A,G,A, | B,4 z4 | z8 |: E,6 E,2 | A,4 z2 A,2 | F,4 z2 F,2 |1 B,6 B,2 :|2 %52
w: cause for cel- e- bra- tion when He|comes.||Come Lord|come oh|come we're|wait- ing|
 (B,4- B,)A,(G,F,) ||[K:Ab] F,CCC z C C2 | z D/D/ DD z D D2 | z D/D/ DD z D D2 | z B,B,B, B,2 G,2 | %57
w: wait- * * * ing|Come and heal us we pray|come re- lieve us to day|in ju- de- a we say|for we are wait- ing|
 z2 B,B, B,2 G,2 | z DDD C2 B,2- | B,4 z C2 B, | B,A, A,2 z D2 C | ED D2 z2 CD | CDCD CB,A,B, | %63
w: come Mes- si- ah|for we are wait- ing|* When Mes-|si- ah comes, when Mes-|si- ah comes He'll Bring|peace to ev- 'ry na- tion when he|
 C4 z C2 B, | B,C C2 z F2 F | DD D2 z2 CD | CDCD CB,A,B, | C4 z B,/C/ (B,/A,/)((F,/E,/)) | F,4 z4 | %69
w: comes He's the|Prom- ised one He is|God's own son we'll have|cause for cel- e- bra- tion when he|comes When Mes- si- * ah *|comes|
 z8 | z2 F,4 B,2 | B,4 C4- | C4 z !>!C!>!C!>!C | (C4 D4) | (D2 E6) | %75
w: |When Mes-|si- ah|* Mes- si- ah|comes *||
 z !>!C2 !>!B, !>!B,!>!A,!>!A, z |] %76
w: When Mes- si- ah- comes|

